symbolic/48x48/apps/accessories-clock.svg

<svg xmlns="http://www.w3.org/2000/svg" width="48" height="48" version="1.1">
 <path style="opacity:0.2" d="M 24,5.0000004 C 12.964693,5.0000004 4,13.96469 4,25 4,36.03531 12.964693,45.000003 24,45 35.035307,45 44.00001,36.03531 44,25 44,13.96469 35.035307,5.0000004 24,5.0000004 Z"/>
 <path style="fill:#4f4f4f" d="M 24,4.0000004 C 12.964693,4.0000004 4,12.96469 4,24 4,35.03531 12.964693,44.000003 24,44 35.035307,44 44.00001,35.03531 44,24 44,12.96469 35.035307,4.0000004 24,4.0000004 Z"/>
 <path style="opacity:0.1;fill:#f4f4f7" d="M 24,4 C 12.964693,4 4,12.96469 4,24 4,24.167832 4.0076,24.33315 4.011719,24.5 4.2786829,13.696117 13.132525,5 24,5 34.867475,5 43.721317,13.696117 43.988281,24.5 43.992404,24.33315 44,24.167832 44,24 44,12.96469 35.035307,4 24,4 Z"/>
 <path style="opacity:0.2" d="M 24.000001,9.0000001 C 15.171752,9.0000001 8,16.171751 8,24.999999 8,33.828248 15.171752,41.000002 24.000001,41 32.828248,41 40.000006,33.828248 40,24.999999 40,16.171751 32.828248,9.0000001 24.000001,9.0000001 Z"/>
 <path style="fill:#ef8a24" d="M 24.000001,8.0000001 C 15.171752,8.0000001 8,15.171751 8,23.999999 8,32.828248 15.171752,40.000002 24.000001,40 32.828248,40 40.000006,32.828248 40,23.999999 40,15.171751 32.828248,8.0000001 24.000001,8.0000001 Z"/>
 <path style="fill:#f4f4f7;opacity:0.1" d="M 24 8 C 15.171751 8 8 15.171752 8 24 C 8 24.168765 8.0201875 24.332484 8.0253906 24.5 C 8.2923691 15.904616 15.340516 9 24 9 C 32.659482 9 39.707631 15.904616 39.974609 24.5 C 39.979812 24.332484 40 24.168765 40 24 C 40 15.171752 32.828247 8 24 8 z"/>
 <path style="opacity:0.2" d="m 24,21 c -2.207062,0 -4,1.792938 -4,4 0,2.207061 1.792938,4 4,4 2.207061,0 4,-1.792939 4,-4 0,-2.207062 -1.792939,-4 -4,-4 z"/>
 <path style="opacity:0.2;fill:none;stroke:#000000;stroke-width:4;stroke-linecap:round;stroke-linejoin:round" d="M 24,24.9998 40,8.9997995"/>
 <path style="fill:none;stroke:#b2bfd9;stroke-width:4;stroke-linecap:round;stroke-linejoin:round" d="M 24,24 40,8"/>
 <path style="opacity:0.2;fill:none;stroke:#000000;stroke-width:4;stroke-linecap:round;stroke-linejoin:round" d="m 15,18.9998 9,6"/>
 <path style="fill:none;stroke:#b2bfd9;stroke-width:4;stroke-linecap:round;stroke-linejoin:round" d="m 15,18 9,6"/>
 <path style="fill:#4f4f4f" d="m 24,20 c -2.207062,0 -4,1.792938 -4,4 0,2.207061 1.792938,4 4,4 2.207061,0 4,-1.792939 4,-4 0,-2.207062 -1.792939,-4 -4,-4 z"/>
</svg>

<svg xmlns="http://www.w3.org/2000/svg" width="48" height="48"><path style="opacity:.2" d="M24 5C12.965 5 4 13.965 4 25s8.965 20 20 20 20-8.965 20-20S35.035 5 24 5z"/><path style="fill:#4f4f4f" d="M24 4C12.965 4 4 12.965 4 24s8.965 20 20 20 20-8.965 20-20S35.035 4 24 4z"/><path style="opacity:.1;fill:#f4f4f7" d="M24 4C12.965 4 4 12.965 4 24c0 .168.008.333.012.5C4.279 13.696 13.132 5 24 5c10.867 0 19.721 8.696 19.988 19.5.004-.167.012-.332.012-.5 0-11.035-8.965-20-20-20z"/><path style="opacity:.2" d="M24 9C15.172 9 8 16.172 8 25s7.172 16 16 16 16-7.172 16-16S32.828 9 24 9z"/><path style="fill:#ef8a24" d="M24 8C15.172 8 8 15.172 8 24s7.172 16 16 16 16-7.172 16-16S32.828 8 24 8z"/><path style="fill:#f4f4f7;opacity:.1" d="M24 8C15.172 8 8 15.172 8 24c0 .169.02.332.025.5C8.292 15.905 15.341 9 24 9c8.66 0 15.708 6.905 15.975 15.5.005-.168.025-.331.025-.5 0-8.828-7.172-16-16-16z"/><path style="opacity:.2" d="M24 21c-2.207 0-4 1.793-4 4s1.793 4 4 4 4-1.793 4-4-1.793-4-4-4z"/><path style="opacity:.2;fill:none;stroke:#000;stroke-width:4;stroke-linecap:round;stroke-linejoin:round" d="M24 25 40 9"/><path style="fill:none;stroke:#b2bfd9;stroke-width:4;stroke-linecap:round;stroke-linejoin:round" d="M24 24 40 8"/><path style="opacity:.2;fill:none;stroke:#000;stroke-width:4;stroke-linecap:round;stroke-linejoin:round" d="m15 19 9 6"/><path style="fill:none;stroke:#b2bfd9;stroke-width:4;stroke-linecap:round;stroke-linejoin:round" d="m15 18 9 6"/><path style="fill:#4f4f4f" d="M24 20c-2.207 0-4 1.793-4 4s1.793 4 4 4 4-1.793 4-4-1.793-4-4-4z"/></svg>
